X: 36094
T: Schenley Oval, The
R: jig
M: 6/8
K: Bminor
|:B2A Bde|fed B2A|ded cBA|BdA B2A|
Bcd efg|(3Bcd e f (3edc|BAB dBA|
fdB (3ABc d|edB adA|1 BdA B2E:|2 BdA B2G||
EFA FAd|fed ecA|EFA AFD|BAF A2G|
EFG GFE|Bcd ecA|EFG GFE|BFA B2e|
fdB ecA|dBG FAd|edB adA|BdA B3||

